X:12
T:Egg Hornpipe. JGi.012
S:Joshua Gibbons MS,1823,Tealby,Lincs.
M:C
L:1/8
Q:1/4=140
R:.hornpipe
O:Tealby,Lincolnshire
Z:VMP/R.Greig, 2009
K:F
fe|fc Ac BdcB|AF AF BdcB|AF AF BG BG|AF AF GEDC|
fc Ac BdcB|AF AF BdcB|Ac fa bg fe|f2f2f2:|
|:ef|ge ce ge bg|af df af c’a|ge ce ge af|gfed c2zc|
dB GB dB fd|cA FA cAfc|dfed cBAG|F2F2F2:|

